assets/images/icon/event-icons/networking.svg

<svg width="119" height="119" viewBox="0 0 119 119" fill="none" xmlns="http://www.w3.org/2000/svg">
<g opacity="0.3">
<path d="M111.067 23.8C106.692 23.8 103.134 27.3582 103.134 31.7333C103.134 36.1084 106.692 39.6666 111.067 39.6666C115.442 39.6666 119 36.1086 119 31.7333C119 27.3582 115.442 23.8 111.067 23.8ZM111.067 35.7001C108.879 35.7001 107.1 33.9211 107.1 31.7333C107.1 29.5458 108.879 27.7666 111.067 27.7666C113.255 27.7666 115.034 29.5455 115.034 31.7333C115.034 33.9211 113.255 35.7001 111.067 35.7001Z" fill="#00003F"/>
<path d="M7.93326 89.25C3.55815 89.25 0 92.8081 0 97.1833C0 101.558 3.55815 105.117 7.93326 105.117C12.3086 105.117 15.8665 101.558 15.8665 97.1833C15.8665 92.8081 12.3086 89.25 7.93326 89.25ZM7.93326 101.15C5.7457 101.15 3.96651 99.371 3.96651 97.1833C3.96651 94.9955 5.74547 93.2165 7.93326 93.2165C10.1208 93.2165 11.9 94.9955 11.9 97.1833C11.9 99.371 10.121 101.15 7.93326 101.15Z" fill="#00003F"/>
<path d="M107.221 26.307L90.1108 18.0465C89.123 17.5684 87.939 17.9849 87.463 18.9708C86.987 19.9565 87.4015 21.1426 88.3874 21.6186L105.498 29.8791C105.775 30.0139 106.069 30.0773 106.358 30.0773C107.096 30.0773 107.804 29.6648 108.145 28.9547C108.621 27.969 108.207 26.783 107.221 26.307Z" fill="#00003F"/>
<path d="M89.2497 103.133C84.8743 103.133 81.3164 106.691 81.3164 111.067C81.3164 115.442 84.8743 119 89.2497 119C93.625 119 97.1829 115.442 97.1829 111.067C97.1829 106.692 93.625 103.133 89.2497 103.133ZM89.2497 115.033C87.0621 115.033 85.2829 113.254 85.2829 111.067C85.2829 108.879 87.0621 107.1 89.2497 107.1C91.4372 107.1 93.2164 108.879 93.2164 111.067C93.2164 113.255 91.4372 115.033 89.2497 115.033Z" fill="#00003F"/>
<path d="M85.4036 105.64L68.2934 97.3798C67.3056 96.9017 66.1217 97.3164 65.6457 98.3041C65.1697 99.2898 65.5841 100.476 66.57 100.952L83.6802 109.212C83.958 109.347 84.2515 109.411 84.5409 109.411C85.2786 109.411 85.9868 108.998 86.328 108.288C86.8037 107.302 86.3893 106.116 85.4036 105.64Z" fill="#00003F"/>
<path d="M59.4997 53.55C55.1243 53.55 51.5664 57.1082 51.5664 61.4833C51.5664 65.8586 55.1246 69.4166 59.4997 69.4166C63.875 69.4166 67.4329 65.8584 67.4329 61.4833C67.4329 57.1082 63.875 53.55 59.4997 53.55ZM59.4997 65.4501C57.3121 65.4501 55.5329 63.6711 55.5329 61.4833C55.5329 59.2957 57.3119 57.5166 59.4997 57.5166C61.6872 57.5166 63.4664 59.2955 63.4664 61.4833C63.4664 63.6711 61.6872 65.4501 59.4997 65.4501Z" fill="#00003F"/>
<path d="M56.0131 56.2789L42.8696 46.0349C42.0048 45.3665 40.7595 45.5153 40.085 46.3801C39.4126 47.2449 39.5653 48.4903 40.4301 49.1647L53.5736 59.4087C53.9366 59.6904 54.365 59.8273 54.7915 59.8273C55.3825 59.8273 55.9657 59.5656 56.3582 59.0638C57.0306 58.1987 56.8779 56.9532 56.0131 56.2789Z" fill="#00003F"/>
<path d="M95.2005 51.5667C83.1715 51.5667 73.3838 61.3544 73.3838 73.3834C73.3838 85.4124 83.1715 95.2001 95.2005 95.2001C107.23 95.2001 117.017 85.4124 117.017 73.3834C117.017 61.3544 107.23 51.5667 95.2005 51.5667ZM95.2005 91.2332C85.3572 91.2332 77.3505 83.2265 77.3505 73.3832C77.3505 63.5399 85.3572 55.5332 95.2005 55.5332C105.044 55.5332 113.051 63.5399 113.051 73.3832C113.051 83.2265 105.044 91.2332 95.2005 91.2332Z" fill="#00003F"/>
<path d="M95.1989 59.5C90.8235 59.5 87.2656 63.0581 87.2656 67.4333C87.2656 71.8086 90.8238 75.3665 95.1989 75.3665C99.5742 75.3665 103.132 71.8084 103.132 67.4333C103.132 63.0581 99.5742 59.5 95.1989 59.5ZM95.1989 71.4C93.0113 71.4 91.2321 69.621 91.2321 67.4333C91.2321 65.2457 93.0111 63.4665 95.1989 63.4665C97.3864 63.4665 99.1656 65.2455 99.1656 67.4333C99.1656 69.621 97.3864 71.4 95.1989 71.4Z" fill="#00003F"/>
<path d="M100.953 79.3333H89.4462C86.0568 79.3333 83.2998 82.0168 83.2998 85.313V90.5411C83.2998 91.2491 83.6766 91.9036 84.2895 92.2587C87.6136 94.1825 91.3858 95.2 95.1998 95.2C99.0139 95.2 102.786 94.1825 106.11 92.2587C106.723 91.9056 107.1 91.2491 107.1 90.5432V85.3151C107.1 82.0168 104.343 79.3333 100.953 79.3333ZM103.133 89.359C98.1967 91.8183 92.203 91.8183 87.2663 89.359V85.3151C87.2663 84.2043 88.2441 83.3 89.446 83.3H100.953C102.155 83.3 103.133 84.2043 103.133 85.3151V89.359H103.133Z" fill="#00003F"/>
<path d="M47.6009 75.3667C35.5719 75.3667 25.7842 85.1545 25.7842 97.1834C25.7842 109.212 35.5719 119 47.6009 119C59.6299 119 69.4177 109.212 69.4177 97.1832C69.4177 85.1542 59.6299 75.3667 47.6009 75.3667ZM47.6009 115.033C37.7576 115.033 29.7509 107.027 29.7509 97.1832C29.7509 87.3399 37.7576 79.3332 47.6009 79.3332C57.4442 79.3332 65.4509 87.3399 65.4509 97.1832C65.4509 107.027 57.4442 115.033 47.6009 115.033Z" fill="#00003F"/>
<path d="M47.6012 83.3C43.2259 83.3 39.668 86.8582 39.668 91.2333C39.668 95.6086 43.2261 99.1666 47.6012 99.1666C51.9763 99.1666 55.5345 95.6084 55.5345 91.2333C55.5345 86.8582 51.9766 83.3 47.6012 83.3ZM47.6012 95.2001C45.4137 95.2001 43.6345 93.4211 43.6345 91.2333C43.6345 89.0457 45.4134 87.2666 47.6012 87.2666C49.7888 87.2666 51.568 89.0455 51.568 91.2333C51.568 93.4211 49.7888 95.2001 47.6012 95.2001Z" fill="#00003F"/>
<path d="M53.3538 103.133H41.8466C38.4572 103.133 35.7002 105.817 35.7002 109.113V114.341C35.7002 115.049 36.077 115.704 36.6898 116.059C40.0139 117.983 43.7862 119 47.6002 119C51.4142 119 55.1864 117.983 58.5105 116.059C59.1234 115.706 59.5002 115.049 59.5002 114.343V109.115C59.5002 105.817 56.7434 103.133 53.3538 103.133ZM55.5334 113.159C50.5968 115.618 44.6033 115.618 39.6667 113.159V109.115C39.6667 108.004 40.6445 107.1 41.8464 107.1H53.3536C54.5554 107.1 55.5332 108.004 55.5332 109.115V113.159H55.5334Z" fill="#00003F"/>
<path d="M21.8167 25.7832C9.78775 25.7832 0 35.571 0 47.5999C0 59.6289 9.78775 69.4167 21.8167 69.4167C33.8457 69.4167 43.6335 59.6289 43.6335 47.5999C43.6333 35.571 33.8455 25.7832 21.8167 25.7832ZM21.8167 65.4499C11.9734 65.4499 3.96674 57.4432 3.96674 47.5999C3.96674 37.7566 11.9734 29.7499 21.8167 29.7499C31.66 29.7499 39.6667 37.7566 39.6667 47.5999C39.6667 57.4432 31.66 65.4499 21.8167 65.4499Z" fill="#00003F"/>
<path d="M21.817 33.7168C17.4417 33.7168 13.8838 37.2749 13.8838 41.6501C13.8838 46.0252 17.4419 49.5833 21.817 49.5833C26.1924 49.5833 29.7503 46.0252 29.7503 41.6501C29.7503 37.2749 26.1922 33.7168 21.817 33.7168ZM21.817 45.6168C19.6295 45.6168 17.8503 43.8378 17.8503 41.6501C17.8503 39.4623 19.6293 37.6833 21.817 37.6833C24.0046 37.6833 25.7838 39.4623 25.7838 41.6501C25.7838 43.8378 24.0046 45.6168 21.817 45.6168Z" fill="#00003F"/>
<path d="M27.5716 53.55H16.0644C12.675 53.55 9.91797 56.2336 9.91797 59.5298V64.7579C9.91797 65.4659 10.2947 66.1204 10.9076 66.4755C14.2317 68.3993 18.0039 69.4168 21.818 69.4168C25.632 69.4168 29.4042 68.3993 32.7283 66.4755C33.3412 66.1224 33.718 65.4659 33.718 64.76V59.5319C33.718 56.2336 30.961 53.55 27.5716 53.55ZM29.7512 63.5758C24.8148 66.0351 18.8211 66.0351 13.8845 63.5758V59.5319C13.8845 58.4211 14.8623 57.5168 16.0641 57.5168H27.5713C28.7732 57.5168 29.751 58.4211 29.751 59.5319V63.5758H29.7512Z" fill="#00003F"/>
<path d="M69.4164 0C57.3874 0 47.5996 9.78775 47.5996 21.8167C47.5996 33.8457 57.3874 43.6335 69.4164 43.6335C81.4453 43.6335 91.2331 33.8457 91.2331 21.8167C91.2329 9.78775 81.4451 0 69.4164 0ZM69.4164 39.6667C59.5731 39.6667 51.5664 31.66 51.5664 21.8167C51.5664 11.9734 59.5731 3.96674 69.4164 3.96674C79.2596 3.96674 87.2664 11.9734 87.2664 21.8167C87.2664 31.66 79.2596 39.6667 69.4164 39.6667Z" fill="#00003F"/>
<path d="M69.4176 7.93335C65.0423 7.93335 61.4844 11.4915 61.4844 15.8666C61.4844 20.2417 65.0425 23.7999 69.4176 23.7999C73.7927 23.7999 77.3509 20.2419 77.3509 15.8668C77.3509 11.4917 73.7927 7.93335 69.4176 7.93335ZM69.4176 19.8334C67.2301 19.8334 65.4509 18.0544 65.4509 15.8666C65.4509 13.6791 67.2298 11.8999 69.4176 11.8999C71.6054 11.8999 73.3844 13.6788 73.3844 15.8666C73.3841 18.0544 71.6052 19.8334 69.4176 19.8334Z" fill="#00003F"/>
<path d="M75.1692 27.7668H63.662C60.2726 27.7668 57.5156 30.4504 57.5156 33.7466V38.9747C57.5156 39.6826 57.8924 40.3371 58.5053 40.6923C61.8294 42.616 65.6016 43.6336 69.4156 43.6336C73.2297 43.6336 77.0019 42.616 80.326 40.6923C80.9389 40.3392 81.3156 39.6826 81.3156 38.9768V33.7487C81.3156 30.4502 78.5586 27.7668 75.1692 27.7668ZM77.3489 37.7926C72.4125 40.2519 66.4188 40.2519 61.4821 37.7926V33.7487C61.4821 32.6379 62.4599 31.7336 63.6618 31.7336H75.169C76.3708 31.7336 77.3486 32.6379 77.3486 33.7487V37.7926H77.3489Z" fill="#00003F"/>
<path d="M51.0929 20.5256C50.381 19.6965 49.1294 19.5973 48.2964 20.3094L34.5519 32.0706C33.7189 32.7826 33.6218 34.0342 34.3337 34.8672C34.7265 35.3253 35.2817 35.5614 35.8409 35.5614C36.2972 35.5614 36.7553 35.4047 37.1302 35.0833L50.8747 23.3221C51.7079 22.6102 51.8051 21.3586 51.0929 20.5256Z" fill="#00003F"/>
<path d="M94.804 52.3621L82.904 36.4954C82.2474 35.6168 81.0039 35.4441 80.1272 36.0986C79.2505 36.7552 79.0741 37.9987 79.7305 38.8733L91.6305 54.74C92.0212 55.2597 92.6162 55.5333 93.2191 55.5333C93.6316 55.5333 94.0502 55.4043 94.4072 55.1366C95.2839 54.4802 95.4606 53.2367 94.804 52.3621Z" fill="#00003F"/>
<path d="M78.5268 79.9422C77.8702 79.0655 76.6267 78.8891 75.75 79.5454L64.6712 87.8536C63.7945 88.5102 63.6181 89.7536 64.2744 90.6282C64.6651 91.1479 65.2601 91.4215 65.863 91.4215C66.2774 91.4215 66.6939 91.2906 67.0512 91.0247L78.13 82.7166C79.0067 82.0605 79.1834 80.8168 78.5268 79.9422Z" fill="#00003F"/>
<path d="M27.7671 95.2H13.8836C12.7889 95.2 11.9004 96.0864 11.9004 97.1832C11.9004 98.28 12.7889 99.1665 13.8836 99.1665H27.7669C28.8616 99.1665 29.7502 98.28 29.7502 97.1832C29.7502 96.0864 28.8618 95.2 27.7671 95.2Z" fill="#00003F"/>
<path d="M21.8173 0C17.4419 0 13.8838 3.55815 13.8838 7.93326C13.8838 12.3086 17.4419 15.8665 21.817 15.8665C26.1924 15.8665 29.7503 12.3084 29.7503 7.93326C29.7505 3.55815 26.1924 0 21.8173 0ZM21.8173 11.9C19.6297 11.9 17.8505 10.121 17.8505 7.93326C17.8505 5.7457 19.6295 3.96651 21.8173 3.96651C24.0048 3.96651 25.784 5.74547 25.784 7.93326C25.7838 10.121 24.0048 11.9 21.8173 11.9Z" fill="#00003F"/>
<path d="M21.8172 11.8999C20.7225 11.8999 19.834 12.7864 19.834 13.8832V27.7664C19.834 28.8632 20.7225 29.7497 21.8172 29.7497C22.9119 29.7497 23.8005 28.8632 23.8005 27.7664V13.8832C23.8005 12.7864 22.9119 11.8999 21.8172 11.8999Z" fill="#00003F"/>
</g>
</svg>

<svg width="119" height="119" fill="none" xmlns="http://www.w3.org/2000/svg"><g opacity=".3" fill="#00003F"><path d="M111.067 23.8c-4.375 0-7.933 3.558-7.933 7.933s3.558 7.934 7.933 7.934S119 36.109 119 31.733c0-4.375-3.558-7.933-7.933-7.933Zm0 11.9a3.97 3.97 0 0 1-3.967-3.967 3.97 3.97 0 0 1 3.967-3.966 3.97 3.97 0 0 1 3.967 3.966 3.97 3.97 0 0 1-3.967 3.967ZM7.933 89.25C3.558 89.25 0 92.808 0 97.183s3.558 7.934 7.933 7.934c4.376 0 7.934-3.559 7.934-7.934s-3.558-7.933-7.934-7.933Zm0 11.9a3.97 3.97 0 0 1-3.966-3.967 3.97 3.97 0 0 1 3.966-3.967 3.97 3.97 0 0 1 3.967 3.967 3.97 3.97 0 0 1-3.967 3.967Z"/><path d="m107.221 26.307-17.11-8.26a1.984 1.984 0 0 0-1.723 3.572l17.11 8.26a1.98 1.98 0 0 0 2.647-.924 1.983 1.983 0 0 0-.924-2.648ZM89.25 103.133c-4.376 0-7.934 3.558-7.934 7.934 0 4.375 3.558 7.933 7.934 7.933 4.375 0 7.933-3.558 7.933-7.933s-3.558-7.934-7.933-7.934Zm0 11.9a3.97 3.97 0 0 1-3.967-3.966 3.97 3.97 0 0 1 3.967-3.967 3.97 3.97 0 0 1 3.966 3.967 3.97 3.97 0 0 1-3.966 3.966Z"/><path d="m85.404 105.64-17.11-8.26a1.984 1.984 0 0 0-1.723 3.572l17.11 8.26a1.98 1.98 0 0 0 2.648-.924 1.984 1.984 0 0 0-.925-2.648ZM59.5 53.55c-4.376 0-7.934 3.558-7.934 7.933 0 4.376 3.559 7.934 7.934 7.934s7.933-3.559 7.933-7.934-3.558-7.933-7.933-7.933Zm0 11.9a3.97 3.97 0 0 1-3.967-3.967 3.97 3.97 0 0 1 3.967-3.966 3.97 3.97 0 0 1 3.966 3.966A3.97 3.97 0 0 1 59.5 65.45Z"/><path d="M56.013 56.279 42.87 46.035a1.985 1.985 0 0 0-2.44 3.13l13.144 10.244a1.982 1.982 0 1 0 2.44-3.13ZM95.2 51.567c-12.029 0-21.816 9.787-21.816 21.816 0 12.03 9.787 21.817 21.817 21.817 12.029 0 21.816-9.788 21.816-21.817s-9.787-21.816-21.816-21.816Zm0 39.666c-9.843 0-17.85-8.007-17.85-17.85 0-9.843 8.007-17.85 17.85-17.85 9.844 0 17.851 8.007 17.851 17.85 0 9.844-8.007 17.85-17.85 17.85Z"/><path d="M95.199 59.5c-4.376 0-7.933 3.558-7.933 7.933 0 4.376 3.558 7.933 7.933 7.933s7.933-3.558 7.933-7.933-3.558-7.933-7.933-7.933Zm0 11.9a3.97 3.97 0 0 1-3.967-3.967 3.97 3.97 0 0 1 3.967-3.967 3.97 3.97 0 0 1 3.967 3.967 3.97 3.97 0 0 1-3.967 3.967Zm5.754 7.933H89.446c-3.39 0-6.146 2.684-6.146 5.98v5.228c0 .708.377 1.363.99 1.718A21.814 21.814 0 0 0 95.2 95.2a21.81 21.81 0 0 0 10.91-2.941c.613-.353.99-1.01.99-1.716v-5.228c0-3.298-2.757-5.982-6.147-5.982Zm2.18 10.026c-4.936 2.46-10.93 2.46-15.867 0v-4.044c0-1.11.978-2.015 2.18-2.015h11.507c1.202 0 2.18.904 2.18 2.015v4.044ZM47.6 75.367c-12.028 0-21.816 9.787-21.816 21.816 0 12.029 9.788 21.817 21.817 21.817s21.817-9.788 21.817-21.817S59.63 75.367 47.6 75.367Zm0 39.666c-9.842 0-17.85-8.006-17.85-17.85 0-9.843 8.008-17.85 17.85-17.85 9.844 0 17.85 8.007 17.85 17.85 0 9.844-8.006 17.85-17.85 17.85Z"/><path d="M47.601 83.3c-4.375 0-7.933 3.558-7.933 7.933 0 4.376 3.558 7.934 7.933 7.934s7.934-3.559 7.934-7.934S51.977 83.3 47.6 83.3Zm0 11.9a3.97 3.97 0 0 1-3.966-3.967 3.97 3.97 0 0 1 3.966-3.966 3.97 3.97 0 0 1 3.967 3.966 3.97 3.97 0 0 1-3.967 3.967Zm5.753 7.933H41.847c-3.39 0-6.147 2.684-6.147 5.98v5.228c0 .708.377 1.363.99 1.718A21.812 21.812 0 0 0 47.6 119a21.81 21.81 0 0 0 10.91-2.941c.613-.353.99-1.01.99-1.716v-5.228c0-3.298-2.757-5.982-6.146-5.982Zm2.18 10.026c-4.937 2.459-10.93 2.459-15.867 0v-4.044c0-1.111.977-2.015 2.18-2.015h11.507c1.201 0 2.18.904 2.18 2.015v4.044ZM21.817 25.783C9.787 25.783 0 35.571 0 47.6s9.788 21.817 21.817 21.817S43.633 59.629 43.633 47.6s-9.788-21.817-21.816-21.817Zm0 39.667c-9.844 0-17.85-8.007-17.85-17.85 0-9.843 8.006-17.85 17.85-17.85 9.843 0 17.85 8.007 17.85 17.85 0 9.843-8.007 17.85-17.85 17.85Z"/><path d="M21.817 33.717c-4.375 0-7.933 3.558-7.933 7.933s3.558 7.933 7.933 7.933 7.933-3.558 7.933-7.933-3.558-7.933-7.933-7.933Zm0 11.9a3.97 3.97 0 0 1-3.967-3.967 3.97 3.97 0 0 1 3.967-3.967 3.97 3.97 0 0 1 3.967 3.967 3.97 3.97 0 0 1-3.967 3.967Zm5.755 7.933H16.064c-3.389 0-6.146 2.684-6.146 5.98v5.228c0 .708.377 1.362.99 1.718a21.814 21.814 0 0 0 10.91 2.94 21.82 21.82 0 0 0 10.91-2.94c.613-.354.99-1.01.99-1.716v-5.228c0-3.298-2.757-5.982-6.146-5.982Zm2.18 10.026c-4.937 2.46-10.93 2.46-15.867 0v-4.044c0-1.11.977-2.015 2.18-2.015H27.57c1.202 0 2.18.904 2.18 2.015v4.044ZM69.416 0C57.387 0 47.6 9.788 47.6 21.817s9.787 21.816 21.816 21.816c12.03 0 21.817-9.787 21.817-21.816C91.233 9.787 81.445 0 69.416 0Zm0 39.667c-9.843 0-17.85-8.007-17.85-17.85 0-9.844 8.007-17.85 17.85-17.85 9.844 0 17.85 8.006 17.85 17.85 0 9.843-8.006 17.85-17.85 17.85Z"/><path d="M69.418 7.933c-4.376 0-7.934 3.559-7.934 7.934s3.559 7.933 7.934 7.933 7.933-3.558 7.933-7.933-3.558-7.934-7.933-7.934Zm0 11.9a3.97 3.97 0 0 1-3.967-3.966 3.97 3.97 0 0 1 3.967-3.967 3.97 3.97 0 0 1 3.966 3.967 3.971 3.971 0 0 1-3.966 3.966Zm5.752 7.934H63.661c-3.39 0-6.146 2.683-6.146 5.98v5.228c0 .708.376 1.362.99 1.717a21.815 21.815 0 0 0 10.91 2.942c3.814 0 7.586-1.018 10.91-2.942.613-.353.99-1.01.99-1.715v-5.228c0-3.299-2.757-5.982-6.147-5.982Zm2.179 10.026c-4.937 2.459-10.93 2.459-15.867 0v-4.044c0-1.111.978-2.015 2.18-2.015h11.507c1.202 0 2.18.904 2.18 2.015v4.044ZM51.093 20.526a1.986 1.986 0 0 0-2.797-.217L34.552 32.071a1.983 1.983 0 1 0 2.578 3.012l13.745-11.76c.833-.713.93-1.964.218-2.797Z"/><path d="m94.804 52.362-11.9-15.867a1.984 1.984 0 0 0-3.173 2.378l11.9 15.867a1.982 1.982 0 0 0 3.173-2.378Zm-16.277 27.58a1.984 1.984 0 0 0-2.777-.397l-11.079 8.309a1.981 1.981 0 1 0 2.38 3.17l11.079-8.307a1.98 1.98 0 0 0 .397-2.775ZM27.767 95.2H13.884a1.983 1.983 0 1 0 0 3.966h13.883a1.983 1.983 0 1 0 0-3.966ZM21.817 0c-4.375 0-7.933 3.558-7.933 7.933 0 4.376 3.558 7.934 7.933 7.934s7.933-3.559 7.933-7.934S26.192 0 21.817 0Zm0 11.9a3.97 3.97 0 0 1-3.966-3.967 3.97 3.97 0 0 1 3.966-3.966 3.97 3.97 0 0 1 3.967 3.966 3.97 3.97 0 0 1-3.967 3.967Z"/><path d="M21.817 11.9a1.983 1.983 0 0 0-1.983 1.983v13.883a1.983 1.983 0 1 0 3.966 0V13.883a1.983 1.983 0 0 0-1.983-1.983Z"/></g></svg>
